X:1
T:Hans Beimler
M:4/4
L:1/4
K:C
 G/2G/2| c e e d| c2 G c/2d/2| e g g f| e3| c/2d/2| e e e d| e3/2- f/2 gf/2-e/2|\
 d d d c| d3/2- e/2 f|g/2-f/2| e3/2 e/2 d3/2 d/2| c2 f3/2- g/2| e3/2 e/2 d3/2 d/2|\
 c3/2 z/2 z||
